X:1
T:[ID 3-11b]
T:[ID 3-11b]
T:Bezeichnung standardisiert: Polonaise Polonoise 7.
T:Urheber unbekannt Datum in der hier transkribierten schriftlichen Quelle: 1775
C:Urheber unbekannt
C:Datum in der hier transkribierten schriftlichen Quelle: 1775
L:1/8
M:3/4
K:D
V:1 treble 
V:1
 FE/D/ E2 c2 |{B} AG/F/ Fd AF | FE/D/ E2 c2 |{B} AG/F/ F2 F2 ::"^O)" F/G/A/B/ c2 f2 | (fe)(ed)dc | %6
"^O)" F/G/A/B/ c2 f2 | (fe)(ed)(dc) | FE/D/ E2 c2 |{B} AG/F/ FdAF | FE/D/ E2 c2 |{B} AG/F/ F2 F2 :| %12

